src/svg/chip.svg

<?xml version="1.0" encoding="UTF-8"?>
<svg width="56px" height="56px" viewBox="0 0 56 56" version="1.1" xmlns="http://www.w3.org/2000/svg" xmlns:xlink="http://www.w3.org/1999/xlink">
    <!-- Generator: Sketch 47.1 (45422) - http://www.bohemiancoding.com/sketch -->
    <title>chip</title>
    <desc>Created with Sketch.</desc>
    <defs></defs>
    <g id="Icons" stroke="none" stroke-width="1" fill="none" fill-rule="evenodd">
        <g id="chip" fill-rule="nonzero" fill="#BDC3C7">
            <path d="M28.0001889,0 C12.5360138,0 0,12.5360138 0,28.0001889 C0,43.464364 12.5360138,56.0003778 28.0001889,56.0003778 C43.4639862,56.0003778 56,43.464364 56,28.0001889 C56,12.5360138 43.4641751,0 28.0001889,0 Z M34.9363915,37.7644416 C32.9222653,37.7644416 31.0868283,37.0066179 29.6933922,35.7635376 C29.7969036,38.3475428 30.1386042,41.8151719 31.179573,43.6779978 L24.820427,43.6779978 C25.8613958,41.8153607 26.2030964,38.3477316 26.3064189,35.7641043 C24.9129828,37.0068068 23.0777347,37.7644416 21.0636085,37.7644416 C16.7087665,37.7644416 13.178615,34.2341013 13.178615,29.8790704 C13.178615,25.7830067 16.3015212,22.4175667 20.2961514,22.0316659 C20.1716734,21.4751982 20.1036732,20.897197 20.1036732,20.3033292 C20.1036732,15.9482983 23.6338247,12.4181469 27.9890444,12.4181469 C32.3438864,12.4181469 35.8740378,15.9482983 35.8740378,20.3033292 C35.8740378,20.8968192 35.8064155,21.4740648 35.6819375,22.0301548 C39.6867676,22.4060445 42.8211961,25.7758289 42.8211961,29.8792593 C42.821385,34.2339124 39.2912335,37.7644416 34.9363915,37.7644416 Z" id="Shape"></path>
        </g>
    </g>
</svg>

<svg width="56" height="56" xmlns="http://www.w3.org/2000/svg"><path d="M28 0C12.536 0 0 12.536 0 28s12.536 28 28 28 28-12.536 28-28S43.464 0 28 0zm6.936 37.764a7.849 7.849 0 0 1-5.243-2c.104 2.584.446 6.051 1.487 7.914h-6.36c1.041-1.863 1.383-5.33 1.486-7.914a7.85 7.85 0 0 1-5.242 2 7.885 7.885 0 0 1-.768-15.732 7.885 7.885 0 1 1 15.386-.002 7.885 7.885 0 0 1-.746 15.734z" fill-rule="nonzero" fill="#D8D8D8"/></svg>
